!!!COM: Beethoven
!!!OTL: 32 Variationen fur das pianoforte
!!!Variation: Variation 4
**function	**harm	**kern	**kern
*M3/4	*M3/4	*staff2	*staff1
*c:	*c:	*clefF4	*clefG2
*tb48	*	*k[b-e-a-]	*k[b-e-a-]
*	*	*M3/4	*M3/4
*	*	*c:	*c:
=	=	=	=
*	*	*	*^
2.T	2.i	8CC	8g	12G'L
.	.	.	.	12c'
.	.	8r	8r	.
.	.	.	.	12e-'J
.	.	8CC	8g	12d'L
.	.	.	.	12e-'
.	.	8r	8r	.
.	.	.	.	12c'J
.	.	8CC	8g	12G'L
.	.	.	.	12c'
.	.	8r	8r	.
.	.	.	.	12e-'J
*	*	*	*v	*v
=	=	=34	=34
*	*	*	*^
2.T	2.V6	8BBB	8g	12G'L
.	.	.	.	12B'
.	.	8r	8r	.
.	.	.	.	12d'J
.	.	4r	4r	12c#'L
.	.	.	.	12d'
.	.	.	.	12B'J
.	.	4r	4r	12G'L
.	.	.	.	12B'
.	.	.	.	12d'J
=	=	=35	=35	=35
2.T	2.viio43/IV	8BBB-	8dd-	12d-'L
.	.	.	.	12e'
.	.	8r	8r	.
.	.	.	.	12g'J
.	.	8BBB-	8dd-	12f#'L
.	.	.	.	12g'
.	.	8r	8r	.
.	.	.	.	12e'J
.	.	8BBB-	8dd-	12d-'L
.	.	.	.	12e'
.	.	8r	8r	.
.	.	.	.	12g'J
=	=	=36	=36	=36
2.P	2.IV6	8AAA	8cc	12c'L
.	.	.	.	12f'
.	.	8r	8r	.
.	.	.	.	12a'J
.	.	4r	4r	12g#'L
.	.	.	.	12a'
.	.	.	.	12f'J
.	.	4r	4r	12c'L
.	.	.	.	12f'
.	.	.	.	12a'J
*	*	*	*v	*v
=	=	=37	=37
*	*	*	*^
2.P	2.Gr65	8AAA-	8cc	12cL
.	.	.	.	12e-
.	.	8r	8r	.
.	.	.	.	12f#J
.	.	8AAA-	8cc	12fL
.	.	.	.	12f#
.	.	8r	8r	.
.	.	.	.	12e-J
.	.	8AAA-	8cc	12cL
.	.	.	.	12e-
.	.	8r	8r	.
.	.	.	.	12f#J
=	=	=38	=38	=38
4D	4i64	8GGG	8cc	12cL
.	.	.	.	12e-
.	.	8r	8r	.
.	.	.	.	12gJ
2@65D	2ii@65	8FFF	8aa-	12a-L
.	.	.	.	12cc
.	.	8r	8r	.
.	.	.	.	12ddJ
.	.	4r	4r	12ffL
.	.	.	.	12aa-
.	.	.	.	12ffJ
=	=	=39	=39	=39
2@65D	2ii@65	4r	4r	12ddL
.	.	.	.	12cc
.	.	.	.	12a-J
.	.	8.r	4r	12fL
.	.	.	.	12d
.	.	.	.	12cJ
.	.	16F	.	.
4D	4V	8G	8g	12BL
.	.	.	.	12d
.	.	8r	8r	.
.	.	.	.	12BJ
*	*	*	*v	*v
=	=	=40	=40
*	*	*	*^
4T	4i	8C	8g	12cL
.	.	.	.	12e-
.	.	8r	8r	.
.	.	.	.	12cJ
4T	4V	8GG	8g	12BL
.	.	.	.	12d
.	.	8r	8r	.
.	.	.	.	12BJ
4T	4i	8CC	8g	12cL
.	.	.	.	12e-
.	.	8r	8r	.
.	.	.	.	12cJ
*	*	*	*v	*v
==	==	=41||	=41||
*-	*-	*-	*-
